pim-2023/src/assets/cookingIcon.svg

<svg width="95" height="100" viewBox="0 0 95 100" fill="none" xmlns="http://www.w3.org/2000/svg">
<path fill-rule="evenodd" clip-rule="evenodd" d="M1.73064 50.241C0.855814 46.9237 0.70643 43.4569 1.29268 40.077C1.87893 36.697 3.18702 33.4833 5.12774 30.6552C7.06847 27.827 9.59619 25.4509 12.5385 23.6888C15.4808 21.9267 18.7686 20.8201 22.1775 20.4445C22.489 15.9672 24.1948 11.7001 27.0552 8.24257C29.9156 4.78503 33.787 2.31071 38.1257 1.16707C42.4644 0.0234228 47.0524 0.267911 51.2455 1.86619C55.4386 3.46448 59.0261 6.33628 61.5042 10.0783C66.8199 7.78586 72.7879 7.50564 78.2955 9.28988C83.8032 11.0741 88.4744 14.801 91.4382 19.7756C94.402 24.7503 95.4561 30.633 94.4039 36.327C93.3517 42.021 90.2651 47.1376 85.7195 50.7226L89.8742 66.4842C92.168 75.1864 93.3137 79.5328 91.3234 82.9492C89.3332 86.3655 84.9881 87.5108 76.2888 89.8039L48.6134 97.0989C39.9141 99.392 35.5691 100.537 32.1534 98.5459C28.7377 96.5545 27.592 92.2081 25.2982 83.506L21.1436 67.7443C16.5565 67.0321 12.2766 64.9967 8.82835 61.8877C5.38015 58.7787 2.91347 54.7311 1.73064 50.241ZM42.8363 75.1821C41.9188 75.4239 41.135 76.0204 40.6573 76.8404C40.1796 77.6604 40.0471 78.6367 40.2891 79.5545C40.531 80.4723 41.1275 81.2564 41.9473 81.7344C42.7671 82.2124 43.7432 82.345 44.6607 82.1032L72.3361 74.8081C73.2536 74.5663 74.0374 73.9698 74.5151 73.1498C74.9928 72.3298 75.1252 71.3535 74.8833 70.4357C74.6414 69.5179 74.0449 68.7338 73.2251 68.2558C72.4052 67.7779 71.4292 67.6452 70.5117 67.8871L42.8363 75.1821Z" fill="#D2D2D2"/>
</svg>

<svg width="95" height="100" viewBox="0 0 95 100" fill="none" xmlns="http://www.w3.org/2000/svg"><path fill-rule="evenodd" clip-rule="evenodd" d="M1.73 50.241a23.865 23.865 0 0 1 3.398-19.586 23.848 23.848 0 0 1 17.05-10.21A21.481 21.481 0 0 1 38.126 1.167a21.47 21.47 0 0 1 23.378 8.911 23.844 23.844 0 0 1 16.792-.788 23.866 23.866 0 0 1 7.424 41.433l4.154 15.761c2.294 8.702 3.44 13.049 1.45 16.465-1.99 3.416-6.336 4.562-15.035 6.855l-27.676 7.295c-8.699 2.293-13.044 3.438-16.46 1.447-3.415-1.992-4.561-6.338-6.855-15.04l-4.154-15.762A23.858 23.858 0 0 1 1.73 50.241Zm41.106 24.941a3.577 3.577 0 0 0-2.547 4.373 3.58 3.58 0 0 0 4.372 2.548l27.675-7.295a3.577 3.577 0 0 0 2.547-4.372 3.58 3.58 0 0 0-4.371-2.549l-27.676 7.295Z" fill="#D2D2D2"/></svg>
